packages/kaspersky-hexa-ui-icons/src/iconsSVGs/16x12/FlagCm.svg

<svg width="16" height="12" viewBox="0 0 16 12" fill="none" xmlns="http://www.w3.org/2000/svg">
<g clip-path="url(#clip0_41813_1906)">
<mask id="mask0_41813_1906" style="mask-type:luminance" maskUnits="userSpaceOnUse" x="0" y="0" width="16" height="12">
<rect width="16" height="12" rx="2" fill="white"/>
</mask>
<g mask="url(#mask0_41813_1906)">
<rect x="7.61902" width="8.38095" height="12" fill="url(#paint0_linear_41813_1906)"/>
<path fill-rule="evenodd" clip-rule="evenodd" d="M0 12H5.33333V0H0V12Z" fill="#059170"/>
<path fill-rule="evenodd" clip-rule="evenodd" d="M5.33337 12H10.6667V0H5.33337V12Z" fill="#E21A30"/>
<path fill-rule="evenodd" clip-rule="evenodd" d="M10.6666 12H16V0H10.6666V12Z" fill="#FFDC44"/>
<path fill-rule="evenodd" clip-rule="evenodd" d="M7.99998 6.78L6.88039 7.61803L7.29348 6.24103L6.18844 5.38197L7.56334 5.36897L7.99998 4L8.43662 5.36897L9.81151 5.38197L8.70648 6.24103L9.11957 7.61803L7.99998 6.78Z" fill="#FFDC42"/>
</g>
</g>
<defs>
<linearGradient id="paint0_linear_41813_1906" x1="7.61902" y1="0" x2="7.61902" y2="12" gradientUnits="userSpaceOnUse">
<stop stop-color="#FFDC44"/>
<stop offset="1" stop-color="#FDD216"/>
</linearGradient>
<clipPath id="clip0_41813_1906">
<rect width="16" height="12" fill="white"/>
</clipPath>
</defs>
</svg>

<svg xmlns="http://www.w3.org/2000/svg" width="16" height="12" fill="none" viewBox="0 0 16 12"><g clip-path="url(#a)"><mask id="b" width="16" height="12" x="0" y="0" maskUnits="userSpaceOnUse" style="mask-type:luminance"><rect width="16" height="12" fill="#fff" rx="2"/></mask><g mask="url(#b)"><path fill="url(#c)" d="M7.619 0H16v12H7.619z"/><path fill="#059170" fill-rule="evenodd" d="M0 12h5.3333V0H0z" clip-rule="evenodd"/><path fill="#e21a30" fill-rule="evenodd" d="M5.3334 12h5.3333V0H5.3334z" clip-rule="evenodd"/><path fill="#ffdc44" fill-rule="evenodd" d="M10.6666 12H16V0h-5.3334z" clip-rule="evenodd"/><path fill="#ffdc42" fill-rule="evenodd" d="m8 6.78-1.1196.838.413-1.377-1.105-.859 1.375-.013L8 4l.4366 1.369 1.375.013-1.1051.859.413 1.377z" clip-rule="evenodd"/></g></g><defs><linearGradient id="c" x1="8" x2="8" y1="0" y2="12" gradientUnits="userSpaceOnUse"><stop stop-color="#ffdc44"/><stop offset="1" stop-color="#fdd216"/></linearGradient><clipPath id="a"><path fill="#fff" d="M0 0h16v12H0z"/></clipPath></defs></svg>
